storage/app/icons/tabler/filled/carousel-vertical.svg

<!--
version: "2.19"
unicode: "fa93"
-->
<svg
  xmlns="http://www.w3.org/2000/svg"
  width="24"
  height="24"
  viewBox="0 0 24 24"
  fill="currentColor"
>
  <path d="M18 6h-12a2 2 0 0 0 -2 2v8a2 2 0 0 0 2 2h12a2 2 0 0 0 2 -2v-8a2 2 0 0 0 -2 -2z" />
  <path d="M16 19a2 2 0 0 1 1.995 1.85l.005 .15v1a1 1 0 0 1 -1.993 .117l-.007 -.117v-1h-8v1a1 1 0 0 1 -1.993 .117l-.007 -.117v-1a2 2 0 0 1 1.85 -1.995l.15 -.005h8z" />
  <path d="M17 1a1 1 0 0 1 .993 .883l.007 .117v1a2 2 0 0 1 -1.85 1.995l-.15 .005h-8a2 2 0 0 1 -1.995 -1.85l-.005 -.15v-1a1 1 0 0 1 1.993 -.117l.007 .117v1h8v-1a1 1 0 0 1 1 -1z" />
</svg>

<svg xmlns="http://www.w3.org/2000/svg" width="24" height="24" fill="currentColor" viewBox="0 0 24 24"><path d="M18 6H6a2 2 0 0 0-2 2v8a2 2 0 0 0 2 2h12a2 2 0 0 0 2-2V8a2 2 0 0 0-2-2m-2 13a2 2 0 0 1 1.995 1.85L18 21v1a1 1 0 0 1-1.993.117L16 22v-1H8v1a1 1 0 0 1-1.993.117L6 22v-1a2 2 0 0 1 1.85-1.995L8 19zm1-18a1 1 0 0 1 .993.883L18 2v1a2 2 0 0 1-1.85 1.995L16 5H8a2 2 0 0 1-1.995-1.85L6 3V2a1 1 0 0 1 1.993-.117L8 2v1h8V2a1 1 0 0 1 1-1"/></svg>
